X:1
T:Torsåkersvalsen
R:Vals
O:Gästrikland
S:Hammarbergs-Hans
M:3/4
L:1/8
K:Dm
AB AG A^c|e3^cAc|d2d^c de|fae2^c2|
AB AG A^c|e3^cAc|d2df e^c|d6|
AB AG A^c|e3^cAc|d2d^c de|fae2^c2|
AB AG A^c|e3^cAc|d2df e^c| d4de||
f2 fe fa|e2ed ef|d2d^c df|A^c ec A2|
f2fe fa|e2ed ef|d2df e^c|d4de|
f2 fe fa|e2ed ef|d2d^c df|A^c ec A2|
f2fe fa|e2ed ef|d2df e^c|d6|

